Sources/FrostedUI/Resources/Icons.xcassets/pauseCircle12.imageset/pause-circle-12.svg

<svg width="12" height="12" viewBox="0 0 12 12" fill="none" xmlns="http://www.w3.org/2000/svg" data-fui-icon="true">
  <path
    d="M6 0C9.31371 0 12 2.68629 12 6C12 9.31371 9.31371 12 6 12C2.68629 12 0 9.31371 0 6C0 2.68629 2.68629 0 6 0ZM6 1.5C3.51472 1.5 1.5 3.51472 1.5 6C1.5 8.48528 3.51472 10.5 6 10.5C8.48528 10.5 10.5 8.48528 10.5 6C10.5 3.51472 8.48528 1.5 6 1.5ZM4.25 4C4.66421 4 5 4.33579 5 4.75V7.25C4.99995 7.66417 4.66418 8 4.25 8C3.83582 8 3.50005 7.66417 3.5 7.25V4.75C3.5 4.33579 3.83579 4 4.25 4ZM7.75 4C8.16421 4 8.5 4.33579 8.5 4.75V7.25C8.49995 7.66417 8.16418 8 7.75 8C7.33582 8 7.00005 7.66417 7 7.25V4.75C7 4.33579 7.33579 4 7.75 4Z"
    fill="currentColor"
  />
</svg>

<svg xmlns="http://www.w3.org/2000/svg" width="12" height="12" fill="none" data-fui-icon="true" viewBox="0 0 12 12"><path fill="currentColor" d="M6 0a6 6 0 1 1 0 12A6 6 0 0 1 6 0m0 1.5a4.5 4.5 0 1 0 0 9 4.5 4.5 0 0 0 0-9M4.25 4a.75.75 0 0 1 .75.75v2.5a.75.75 0 0 1-1.5 0v-2.5A.75.75 0 0 1 4.25 4m3.5 0a.75.75 0 0 1 .75.75v2.5a.75.75 0 0 1-1.5 0v-2.5A.75.75 0 0 1 7.75 4"/></svg>
